modules/hawcons-filled/icons/icon-27-moon-stars.svg

<?xml version="1.0" encoding="UTF-8" standalone="no"?>
<svg width="32px" height="32px" viewBox="0 0 32 32" version="1.1" xmlns="http://www.w3.org/2000/svg" xmlns:xlink="http://www.w3.org/1999/xlink" xmlns:sketch="http://www.bohemiancoding.com/sketch/ns">
    <!-- Generator: Sketch 3.0.3 (7891) - http://www.bohemiancoding.com/sketch -->
    <title>icon 27 moon stars</title>
    <desc>Created with Sketch.</desc>
    <defs></defs>
    <g id="Page-1" stroke="none" stroke-width="1" fill="none" fill-rule="evenodd" sketch:type="MSPage">
        <g id="icon-27-moon-stars" sketch:type="MSArtboardGroup" fill="#929292">
            <path d="M18.2142857,11.7619048 L17,15 L15.7857143,11.7619048 L13.5,11 L15.7857143,10.2380952 L17,7 L18.2142857,10.2380952 L20.5,11 L18.2142857,11.7619048 L18.2142857,11.7619048 L18.2142857,11.7619048 Z M22.2142857,18.2380952 L21,15 L19.7857143,18.2380952 L17.5,19 L19.7857143,19.7619048 L21,23 L22.2142857,19.7619048 L24.5,19 L22.2142857,18.2380952 L22.2142857,18.2380952 L22.2142857,18.2380952 Z M14.8364888,22.3310925 C14.2394286,24.722796 12.0766283,26.4946037 9.5,26.4946037 C6.46243373,26.4946037 4,24.0321699 4,20.9946037 C4,18.4179753 5.77180769,16.2551751 8.16351119,15.6581148 C8.51489636,15.5703957 8.87966199,15.5164731 9.25415509,15.5 C9.08954096,15.9676426 9,16.4706664 9,16.9946037 C9,19.4798852 11.0147185,21.4946037 13.5,21.4946037 C14.0239372,21.4946037 14.5269611,21.4050627 14.9946037,21.2404486 C14.9781305,21.6149417 14.9242079,21.9797073 14.8364888,22.3310925 L14.8364888,22.3310925 Z M26.8673469,12.4285714 L28.5,13 L26.8673469,13.5714286 L26,16 L25.1326531,13.5714286 L23.5,13 L25.1326531,12.4285714 L26,10 L26.8673469,12.4285714 L26.8673469,12.4285714 Z" id="moon-stars" sketch:type="MSShapeGroup"></path>
        </g>
    </g>
</svg>

<svg width="32" height="32" viewBox="0 0 32 32" xmlns="http://www.w3.org/2000/svg"><path d="M18.214 11.762L17 15l-1.214-3.238L13.5 11l2.286-.762L17 7l1.214 3.238L20.5 11l-2.286.762zm4 6.476L21 15l-1.214 3.238L17.5 19l2.286.762L21 23l1.214-3.238L24.5 19l-2.286-.762zm-7.378 4.093A5.5 5.5 0 1 1 9.254 15.5a4.5 4.5 0 0 0 5.74 5.74c-.016.375-.07.74-.158 1.091zm12.031-9.902L28.5 13l-1.633.571L26 16l-.867-2.429L23.5 13l1.633-.571L26 10l.867 2.429z" fill="#929292" fill-rule="evenodd"/></svg>
